!!!COM: Béla Bartók
!!!OTL: [T344_Bar-w43p11-12m87-101]
**kern	**dynam	**kern	**dynam	**kern	**dynam	**kern	**dynam
*grp:A	*grp:A	*grp:A	*grp:A	*grp:B	*grp:B	*grp:B	*grp:B
*part4	*part4	*part3	*part3	*part2	*part2	*part1	*part1
*staff4	*staff4	*staff3	*staff3	*staff2	*staff2	*staff1	*staff1
*I"Violoncello	*I"Violoncello	*I"Viola	*I"Viola	*I"Violin II	*I"Violin II	*I"Violin I	*I"Violin I
*I'Vc.	*	*I'Vla.	*	*I'Vln. II	*	*I'Vln. I	*
*clefF4	*	*clefC3	*	*clefG2	*	*clefG2	*
*k[]	*	*k[]	*	*k[]	*	*k[]	*
*C:	*	*C:	*	*C:	*	*C:	*
*M4/4	*	*M4/4	*	*M4/4	*	*M4/4	*
=1	=1	=1	=1	=1	=1	=1	=1
!	!LO:DY:ed=brack	!	!LO:DY:ed=brack	!	!	!LO:TX:t=[quarter]=128	!
8ryy	4ryy	8ryy	4ryy	2r	.	2r	.
4ryy	.	4ryy	.	.	.	.	.
8ryy	.	8ryy	.	.	.	.	.
4ryy	.	4ryy	.	4r	.	4r	.
4ryy	.	4ryy	.	(20ffLL	ff	(20fffLL	ff
.	.	.	.	20ee	.	20eee	.
.	.	.	.	20gg-X	.	20ggg-X	.
.	.	.	.	20ff	.	20fff	.
.	.	.	.	20ggnJJ)	.	20gggnJJ)	.
=2	=2	=2	=2	=2	=2	=2	=2
8ryy	.	8ryy	.	[2aa-X	.	[2aaa-X	.
4ryy	.	8ryy	.	.	.	.	.
=-	=-	=:	=:	=-	=-	=-	=-
.	.	8ryy	.	.	.	.	.
8ryy	.	4ryy	.	.	.	.	.
4ryy	.	.	.	8aa-L]	.	8aaa-L]	.
.	.	8ryy	.	(8gg-X	.	(8ggg-X	.
4ryy	.	4ryy	.	8ee-X)	.	8eee-X)	.
.	.	.	.	8dd-XJ	.	8ddd-XJ	.
=3	=3	=3	=3	=3	=3	=3	=3
8ryy	.	4ryy	.	2r	.	2r	.
.	.	.	.	.	.	.	.
4ryy	.	.	.	.	.	.	.
=-	=-	=:	=:	=-	=-	=-	=-
.	.	8ryy	.	.	.	.	.
8ryy	.	4ryy	.	.	.	.	.
*	*	*	*	*lig	*	*	*
!	!	!	!	!LO:TX:a:rj:t=IV	!	!	!
4ryy	.	.	.	(20fLL	.	(20ffLL	.
.	.	.	.	20e	.	20ee	.
.	.	.	.	20g-X	.	20gg-X	.
.	.	8ryy	.	.	.	.	.
.	.	.	.	20f	.	20ff	.
.	.	.	.	20gnJJ)	.	20ggnJJ)	.
4ryy	.	4ryy	.	[4a-X	.	[4aa-X	.
!!LO:REH:t=90
=4	=4	=4	=4	=4	=4	=4	=4
8ryy	.	4ryy	.	8a-L]	.	8aa-L]	.
4ryy	.	.	.	(8g-X	.	(8gg-X	.
=-	=-	=:	=:	=-	=-	=-	=-
.	.	8ryy	.	8e-X)	.	8ee-X)	.
8ryy	.	4ryy	.	8d-XJ	.	8dd-XJ	.
4ryy	.	.	.	8r	.	8r	.
.	.	8ryy	.	8e-L	.	8ee-L	.
4ryy	.	4ryy	.	8g-	.	8gg-	.
.	.	.	.	(8a-XJ	.	(8aa-XJ	.
*	*	*	*	*Xlig	*	*	*
=5	=5	=5	=5	=5	=5	=5	=5
8ryy	.	4ryy	.	8cc-XL)	.	8ccc-XL)	.
4ryy	.	.	.	(8a-X	.	(8aa-X	.
=-	=-	=:	=:	=-	=-	=-	=-
.	.	8ryy	.	8g-X)	.	8gg-X)	.
8ryy	.	4ryy	.	8cnJ	.	8ccnJ	.
4ryy	.	.	.	8d-X	.	8dd-X	.
.	.	8ryy	.	([4.e-X	.	([4.ee-X	.
4ryy	.	4ryy	.	.	.	.	.
=6	=6	=6	=6	=6	=6	=6	=6
8ryy	.	4ryy	.	8e-L]	.	8ee-L]	.
4ryy	.	.	.	8g-X)	.	8gg-X)	.
=-	=-	=:	=:	=-	=-	=-	=-
.	.	8ryy	.	8c	.	8cc	.
8ryy	.	4ryy	.	8d-XJ	.	8dd-XJ	.
4ryy	.	.	.	4e-X	.	4ee-X	.
.	.	8ryy	.	.	.	.	.
4ryy	.	4ryy	.	(20enLL	.	(20eenLL	.
.	.	.	.	20f	.	20ff	.
.	.	.	.	20gn	.	20ggn	.
.	.	.	.	20a	.	20aa	.
.	.	.	.	20b-XJJ)	.	20bb-XJJ)	.
=7	=7	=7	=7	=7	=7	=7	=7
8ryy	.	4ryy	.	([2cc-X	.	[2ccc-X	.
4ryy	.	.	.	.	.	.	.
=-	=-	=:	=:	=-	=-	=-	=-
.	.	8ryy	.	.	.	.	.
8ryy	.	4ryy	.	.	.	.	.
4ryy	.	.	.	8cc-L]	.	8ccc-L]	.
.	.	8ryy	.	8ddnJ)	.	8dddnJ	.
4ryy	.	4ryy	.	8cnL	.	8ccnL	.
.	.	.	.	8d-XJ	.	8dd-XJ	.
=8	=8	=8	=8	=8	=8	=8	=8
8ryy	.	4ryy	.	8e-X	.	8ee-X	.
4ryy	.	.	.	(24enLL	.	(24eenLL	.
.	.	.	.	24f	.	24ff	.
.	.	.	.	24gJJ	.	24ggJJ	.
=-	=-	=:	=:	=-	=-	=-	=-
.	.	8ryy	.	[2a-X	.	[2aa-X	.
8ryy	.	4ryy	.	.	.	.	.
4ryy	.	.	.	.	.	.	.
.	.	8ryy	.	.	.	.	.
4ryy	.	4ryy	.	8a-L])	.	8aa-L])	.
!	!	!	!	!LO:TX:t=P:problem:cross-bar beaming	!	!LO:TX:t=P:problem:cross-bar beaming	!
.	.	.	.	(8g-X	.	(8gg-X	.
!!LO:REH:t=95
=9	=9	=9	=9	=9	=9	=9	=9
8ryy	.	4ryy	.	8e-X)	.	8ee-X)	.
4ryy	.	.	.	8d-XJ	.	8dd-XJ	.
=-	=-	=:	=:	=-	=-	=-	=-
.	.	8ryy	.	4r	.	4r	.
8ryy	.	4ryy	.	.	.	.	.
*	*	*	*	*	*	*lig	*
!	!	!	!	!	!	!LO:TX:a:rj:t=IV	!
4ryy	.	.	.	(20fLL	.	(20fLL	.
.	.	.	.	20en	.	20e	.
.	.	.	.	20g-X	.	20g-X	.
.	.	8ryy	.	.	.	.	.
.	.	.	.	20f	.	20f	.
.	.	.	.	20gnJJ)	.	20gnJJ)	.
4ryy	.	4ryy	.	([4a-X	.	([4a-X	.
=10	=10	=10	=10	=10	=10	=10	=10
4ryy	.	8ryy	.	8a-L]	.	8a-L]	.
.	.	4ryy	.	8g-XJ)	.	8g-XJ)	.
8ryy	.	.	.	4r	.	8r	.
4ryy	.	8ryy	.	.	.	(20fLL	.
.	.	.	.	.	.	20e	.
.	.	.	.	.	.	20g-	.
.	.	4ryy	.	4r	.	.	.
.	.	.	.	.	.	20f	.
.	.	.	.	.	.	20gnJJ)	.
*	*	*	*	*	*	*Xlig	*
8ryy	.	.	.	.	.	8r	.
4ryy	.	8ryy	.	(20BLL	.	(20fLL	.
.	.	.	.	20c	.	20e	.
.	.	.	.	20B-X	.	20g-X	.
.	.	8ryy	.	.	.	.	.
.	.	.	.	20Bn	.	20f	.
.	.	.	.	20AJJ)	.	20gnJJ)	.
=11	=11	=11	=11	=11	=11	=11	=11
2ryy	.	2ryy	.	8G#X^^<	.	8g#X^^<	.
.	.	.	.	4f 4b	.	4ff 4bb	.
.	.	.	.	8G#	.	8g#	.
4ryy	.	4ryy	.	4f~> 4b	.	4ff~ 4bb	.
20ryy	.	20ryy	.	4G#~>^^> 4f 4b	.	4g#~^^ 4ff 4bb	.
20ryy	.	20ryy	.	.	.	.	.
20ryy	.	20ryy	.	.	.	.	.
20ryy	.	20ryy	.	.	.	.	.
20ryy	.	20ryy	.	.	.	.	.
=12	=12	=12	=12	=12	=12	=12	=12
2ryy	.	2ryy	.	8G#X	.	8g#X^^<	.
.	.	.	.	8r	.	4ff 4bb	.
.	.	.	.	8G#^^	.	.	.
.	.	.	.	4f 4b	.	8g#	.
8ryy	.	8ryy	.	.	.	4ff~ 4bb	.
8ryy	.	8ryy	.	8G#	.	.	.
8ryy	.	8ryy	.	4f~> 4b	.	4g#~^^ 4ff 4bb	.
8ryy	.	8ryy	.	.	.	.	.
=13	=13	=13	=13	=13	=13	=13	=13
8ryy	.	8ryy	.	8G#X~>^^>	.	8g#X^^	.
8ryy	.	8ryy	.	8r	.	4ff 4bb	.
8ryy	.	8ryy	.	8G#^^	.	.	.
8ryy	.	8ryy	.	4f 4b	.	8g#	.
8ryy	.	8ryy	.	.	.	4ff~ 4bb	.
8ryy	.	8ryy	.	8G#	.	.	.
8ryy	.	8ryy	.	4f~> 4b	.	4g#~^^ 4ff 4bb	.
8ryy	.	8ryy	.	.	.	.	.
!!LO:REH:t=100
=14	=14	=14	=14	=14	=14	=14	=14
24ryy	.	24ryy	.	4G#X~>^^ 4f 4b	.	8g#X^^	.
24ryy	.	24ryy	.	.	.	.	.
24ryy	.	24ryy	.	.	.	.	.
4.ryy	.	4.ryy	.	.	.	4ff 4bb	.
=-	=-	=-	=-	=:	=:	=-	=-
.	.	.	.	8G#^^	.	.	.
.	.	.	.	4f 4b	.	8g#	.
8ryy	.	8ryy	.	.	.	4ff~ 4bb	.
8ryy	.	8ryy	.	8G#	.	.	.
8ryy	.	8ryy	.	4f~> 4b	.	4g#~^^ 4ff 4bb	.
8ryy	.	8ryy	.	.	.	.	.
=15	=15	=15	=15	=15	=15	=15	=15
8ryy	.	8ryy	.	4G#X~>^^ 4f 4b	.	8g#X^^	.
8ryy	.	8ryy	.	.	.	4ff 4bb	.
=-	=-	=-	=-	=:	=:	=-	=-
20ryy	.	20ryy	.	8G#^^	.	.	.
20ryy	.	20ryy	.	.	.	.	.
20ryy	.	20ryy	.	.	.	.	.
.	.	.	.	4f 4b	.	8g#	.
20ryy	.	20ryy	.	.	.	.	.
20ryy	.	20ryy	.	.	.	.	.
4ryy	.	4ryy	.	.	.	4ff~ 4bb	.
.	.	.	.	8G#	.	.	.
20ryy	.	20ryy	.	4f~>^^ 4b	.	8g#L	.
20ryy	.	20ryy	.	.	.	.	.
20ryy	.	20ryy	.	.	.	.	.
.	.	.	.	.	.	8ffJ 8bb	.
20ryy	.	20ryy	.	.	.	.	.
20ryy	.	20ryy	.	.	.	.	.
=	=	=	=	=	=	=	=
*-	*-	*-	*-	*-	*-	*-	*-
!!!system-decoration: [(s1,s2,s3,s4)]
!!!RDF**kern: < = below
!!!RDF**kern: > = above
!!!EED: Kelsey Lussier
!!!EEV: 2021/07/20
!!!EED2: Gabriella Vici
!!!EEV2: 2022/02/03
